X: 28059
T: Mr Benn's
R: hornpipe
M: 4/4
K: Cdorian
(3G_G|:FB df =e2 (3efg|fd BF =E2 (3EFG|Fd _de (3=dcB (3dfg|_a4 (3_zBc (3def|
[1 g_g =gB cc (3cde|f2 d2 B2 zd|(3cdc (3BAB c2 zg|(3fgf (3efe (3ded (3cAG:|
[2 g_g =g_g (3=g_g=g (3efg|f=e (3fe_e d2 (3zef|gg (3efg f2 A2|(3Bdf (3=efb (3Bdf (3cAG||

